brandFactory_export/3.Masa/Intranet_3Masa.svg

<?xml version="1.0" encoding="UTF-8"?>
<svg width="24px" height="24px" viewBox="0 0 24 24" version="1.1" xmlns="http://www.w3.org/2000/svg" xmlns:xlink="http://www.w3.org/1999/xlink">
    <title>3.Masa/Intranet_3Masa</title>
    <g id="Symbols" stroke="none" stroke-width="1" fill="none" fill-rule="evenodd">
        <g id="3.Masa/Intranet_3Masa" fill="#5CB615" fill-rule="nonzero">
            <path d="M7.03865546,18.1109244 L12.0268908,18.1109244 L12.0268908,23.6235294 C9.97983193,23.1294118 8.1512605,21.0151261 7.03865546,18.1109244 Z M4.63193277,16.4436975 L0.642016807,16.4436975 C0.221848739,15.0857143 0,13.5495798 0,11.8151261 C0,10.389916 0.14789916,9.09579832 0.430252101,7.93277311 L4.45378151,7.93277311 C4.21176471,9.20336134 4.08739496,10.4941176 4.08403361,11.7882353 C4.08403361,13.3546218 4.26890756,14.9176471 4.63193277,16.4436975 L4.63193277,16.4436975 Z M5.10588235,18.1109244 C5.82184874,20.1781513 6.8605042,21.9394958 8.13109244,23.2033613 C4.87394958,22.4134454 2.58487395,20.7159664 1.28067227,18.1109244 L5.10588235,18.1109244 Z M6.75294118,6.26554622 C7.82521008,2.97815126 9.79831933,0.531092437 12.0268908,0 L12.0268908,6.26554622 L6.75294118,6.26554622 Z M20.6722689,19.38822 C19.9058824,19.38822 19.2840336,19.9361345 19.2840336,20.6084034 C19.2840336,21.287395 19.902521,21.8386555 20.6722689,21.8386555 C21.4285714,21.8386555 22.0470588,21.2907563 22.0470588,20.6084034 C22.0470588,19.9361345 21.4285714,19.3848739 20.6722689,19.38822 Z M20.6722689,2.4302521 C19.9058824,2.4302521 19.2840336,2.97815126 19.2840336,3.65714286 C19.2840336,4.32941176 19.902521,4.87731092 20.6722689,4.87731092 C21.4285714,4.87731092 22.0470588,4.32941176 22.0470588,3.65714286 C22.0470588,2.97815126 21.4285714,2.4302521 20.6722689,2.4302521 Z M20.6722689,10.9411765 C19.9058824,10.9411765 19.2840336,11.492437 19.2840336,12.1613445 C19.2840336,12.8403361 19.902521,13.3882353 20.6722689,13.3882353 C21.4285714,13.3882353 22.0470588,12.8403361 22.0470588,12.1613445 C22.0470588,11.492437 21.4285714,10.9411765 20.6722689,10.9411765 Z M12.0268908,12.8605042 L12.0268908,14.0705882 L15.805042,14.0705882 C16.2352941,14.0705882 16.5815126,14.3764706 16.5915966,14.7596639 L16.6453782,19.9092437 L17.8218487,19.9092437 C18.1815126,18.8 19.3042017,17.989916 20.6689076,17.989916 C22.2957983,17.989916 23.6201681,19.1630252 23.6201681,20.6084034 C23.6201681,22.0504202 22.2957983,23.2336134 20.6689076,23.2336134 C19.3042017,23.2336134 18.1781513,22.4134454 17.8218487,21.307563 L15.8689076,21.307563 C15.4386555,21.307563 15.0823529,20.9983193 15.0823529,20.6184874 L15.0285714,15.4689076 L12.0235294,15.4689076 L12.0235294,16.4470588 L6.4907563,16.4470588 C6.09411765,14.9277311 5.89243697,13.3613445 5.89243697,11.7915966 C5.89243697,10.4504202 6.03697479,9.15630252 6.31260504,7.93613445 L12.0268908,7.93613445 L12.0268908,8.80336134 L15.0319328,8.80336134 L15.0857143,3.65378151 C15.0857143,3.27058824 15.4420168,2.96134454 15.8722689,2.96134454 L17.8252101,2.96134454 C18.1848739,1.85546218 19.307563,1.03529412 20.6722689,1.03529412 C22.2991597,1.03529412 23.6235294,2.20840336 23.6235294,3.6605042 C23.6235294,5.10588235 22.2991597,6.2789916 20.6722689,6.2789916 C19.307563,6.2789916 18.1815126,5.45882353 17.8252101,4.35966387 L16.6487395,4.35966387 L16.594958,9.50252101 C16.5848739,9.89243697 16.2386555,10.2016807 15.8084034,10.2016807 L12.0268908,10.2016807 L12.0268908,11.4621849 L17.8252101,11.4621849 C18.1815126,10.3630252 19.3042017,9.54285714 20.6722689,9.54285714 C22.2991597,9.54285714 23.6235294,10.7159664 23.6235294,12.1613445 C23.6235294,13.6134454 22.2991597,14.7865546 20.6722689,14.7865546 C19.307563,14.7865546 18.1815126,13.9663866 17.8252101,12.8605042 L12.0268908,12.8605042 Z M4.86386555,6.26554622 L0.954621849,6.26554622 C2.17478992,3.24033613 4.57142857,1.28403361 8.1210084,0.420168067 C6.70252101,1.84201681 5.55630252,3.87563025 4.86386555,6.26554622 Z" id="Intranet_3Masa"></path>
        </g>
    </g>
</svg>

<svg width="24" height="24" viewBox="0 0 24 24" xmlns="http://www.w3.org/2000/svg"><path d="M7.039 18.11h4.988v5.514c-2.047-.495-3.876-2.609-4.988-5.513zm-2.407-1.666H.642C.222 15.086 0 13.55 0 11.815c0-1.425.148-2.72.43-3.882h4.024a20.896 20.896 0 00-.37 3.855c0 1.567.185 3.13.548 4.656zm.474 1.667c.716 2.067 1.755 3.828 3.025 5.092-3.257-.79-5.546-2.487-6.85-5.092h3.825zM6.753 6.266C7.825 2.978 9.798.53 12.027 0v6.266H6.753zm13.92 13.122c-.767 0-1.389.548-1.389 1.22 0 .68.619 1.23 1.388 1.23.757 0 1.375-.547 1.375-1.23 0-.672-.618-1.223-1.375-1.22zm0-16.958c-.767 0-1.389.548-1.389 1.227 0 .672.619 1.22 1.388 1.22.757 0 1.375-.548 1.375-1.22 0-.679-.618-1.227-1.375-1.227zm0 8.511c-.767 0-1.389.551-1.389 1.22 0 .68.619 1.227 1.388 1.227.757 0 1.375-.548 1.375-1.227 0-.669-.618-1.22-1.375-1.22zm-8.646 1.92v1.21h3.778c.43 0 .777.305.787.689l.053 5.15h1.177c.36-1.11 1.482-1.92 2.847-1.92 1.627 0 2.951 1.173 2.951 2.618 0 1.442-1.324 2.626-2.951 2.626-1.365 0-2.49-.82-2.847-1.926h-1.953c-.43 0-.787-.31-.787-.69l-.053-5.15h-3.005v.98H6.49a18.442 18.442 0 01-.599-4.656c0-1.342.145-2.636.42-3.856h5.715v.867h3.005l.054-5.15c0-.382.356-.692.786-.692h1.953c.36-1.106 1.483-1.926 2.847-1.926 1.627 0 2.952 1.173 2.952 2.626 0 1.445-1.325 2.618-2.952 2.618-1.364 0-2.49-.82-2.847-1.92H16.65l-.054 5.144c-.01.39-.356.699-.787.699h-3.781v1.26h5.798c.357-1.099 1.48-1.92 2.847-1.92 1.627 0 2.952 1.174 2.952 2.62 0 1.451-1.325 2.625-2.952 2.625-1.364 0-2.49-.82-2.847-1.926h-5.798zM4.864 6.266H.954C2.175 3.24 4.572 1.284 8.122.42 6.703 1.842 5.556 3.876 4.864 6.266z" fill="#5CB615" fill-rule="nonzero"/></svg>
